X: 181
T: The Irish Lilt.  A favourite Dance Perform'd at the Theatre Royal in Drury Lane.
T: Lango Lee
N: First dance in the Irish Lilt series.
N: This tune has "1768" at the top-right corner.
B: 204 Favourite Country Dances
N: Published by Straight & Skillern, London ca.1775
F: http://imslp.org/wiki/204_Favourite_Country_Dances_(Various) p.91 #181
Z: 2014 John Chambers <jc:trillian.mit.edu>
M: 6/8
L: 1/8
K: Amix
% - - - - - - - - - - - - - - - - - - - - - - - - -
|:\
A3 c3 | B>AB c<AF | ECE A2{de}f | e>dc (B2A) |\
[A3D3] [c3E3] | B>AB c<AF | ECE A2{de}f | edc (B2A) :|
|:\
c>de e>fg | f>ed c>BA | c>de e2{d}e | f2^g a3 |\
edc a^gf | edc (B2A) | .a3 .a3 | A>dc (B2A) :|
% - - - - - - - - - - - - - - - - - - - - - - - - -
%%begintext align
%% Hey contrary sides .| then on your own
%% sides .|. cast off one Cu. lead thro' the 3d
%% Cu. and cast up :|. Foot it & Right & Left :|:
%%endtext

%%sep 1 1 500
%%sep 1 1 500
